X:1
T:The Hand That Lifts Me
T:The Hand That Lifts Me
T:Arranged by Mrs. N. B. Covert
T:J. Byington Smith, 1874
T:Public Domain Courtesy of the Cyber Hymnal™
C:Arranged by Mrs. N. B. Covert
Z:Public Domain
Z:Courtesy of the Cyber Hymnal™
%%score ( 1 2 ) ( 3 4 )
L:1/8
Q:1/4=100
M:4/4
K:Bb
V:1 treble 
V:2 treble 
V:3 bass 
V:4 bass 
V:1
 [B,D][CE] | [DF]2 [DF]>[DF] [EG]F ([EG][EB]) | [DB]4 [DF]2 [DB]2 | %3
w: 1.~When the|moun- tain of sin rose a- *|bove me, And|
w: 2.~When I|sank in the hor- ri- ble *|dun- geon, That|
w: 3.~When I’m|sink- ing in death’s gloom- y *|riv- er, And|
w: 4.~Un- to|Him who thus gra- cious- ly *|saves me, From|
 [Ec]2 [Ec]>[Ec] [Ec]2 [DB][Fc] | [Fd]6 [FB][FA] | [EG]2 [EG][FA] [GB]2 [FA][EG] | %6
w: I could not scale its black|heights, Its dark|sha- dows were fall- ing up-|
w: hor- ri- ble pit where I|lay, When the|ter- rors of death were up-|
w: down in the surg- es I|lie, Then this|hand is ex- tend- ed to|
w: sor- row, and sad- ness and|sin, I will|cling till in love He shall|
 [DF]4 [DB]2 ([DB][Ec]) | [Fd]2 [Ec][DB] [DA]2 [DA][DB] | [Fc]6 [EF]>[EF] | %9
w: on me, And *|ga- thering the black- ness of|night; Then a|
w: on me, And *|noth- ing my fears could al-|lay; Then a|
w: res- cue, And *|lift to my home in the|sky; ’Tis the|
w: bring me, Where *|nev- er a sor- row has|been; And when|
 [DF]2 [DF][DF] ([EG]F)[EG][EA] | [DB]4 [DF]2 [FB][Gc] | [Fd]2 [Ec][DB] [Fc]2 [FB][FA] | [DB]6 |] %13
w: hand took me o- * ver the|moun- tain To my|home which was far out of|sight.|
w: hand un- der- neath * me up-|bore me To the|bright- ness and glad- ness of|day.|
w: hand of my Sav- * ior that|takes me, And will|lift me to dwell up- on|high.|
w: He at the door * will be|wait- ing, To lift|me, a poor wan- der- er,|in.|
V:2
 x2 | x5 F x2 | x8 | x8 | x8 | x8 | x8 | x8 | x8 | x5 F x2 | x8 | x8 | x6 |] %13
V:3
 [B,,F,][B,,F,] | [B,,B,]2 [B,,B,]>[B,,B,] [E,B,][D,B,] ([E,B,][C,F,]) | %2
 [B,,F,]4 [B,,B,]2 [B,,B,]2 | [F,A,]2 [F,A,]>[F,A,] [F,A,]2 [G,B,][F,A,] | [B,,B,]6 [D,B,][D,D] | %5
 [E,B,]2 [E,B,][E,B,] [E,E]2 [E,B,][E,B,] | [B,,B,]4 [B,,F,]2 [B,,F,]2 | [B,,F,]2 F,F, F,2 F,F, | %8
 [F,A,]6 [F,A,]>[F,A,] | [B,,B,]2 [B,,B,][B,,B,] B,2 [E,B,][C,F,] | %10
 [B,,F,]4 [B,,B,]2 [D,B,][E,B,] | [F,B,]2 [F,A,][F,B,] [F,A,]2 [F,D][F,C] | [B,,B,]6 |] %13
V:4
 x2 | x8 | x8 | x8 | x8 | x8 | x8 | x2 F,F, F,2 F,F, | x8 | x4 (E,D,) x2 | x8 | x8 | x6 |] %13

